lib/logo_tmp/nrk-logo-nrk-p1-title-below-on-dark.svg

<svg width="40" height="36" viewBox="0 0 40 36" fill="none" xmlns="http://www.w3.org/2000/svg">
<path d="M0 15.0034V1.00465H4.59339V15.0034H0ZM10.8428 3.23262L13.4844 15.0034H8.45737L5.30307 1.00465H8.12254C8.76907 0.996258 9.39641 1.22417 9.88691 1.6455C10.3782 2.04916 10.7158 2.60952 10.8428 3.23262ZM14.1744 15.0034V1.00465H18.7678V15.0034H14.1744ZM22.2372 6.32816C21.7422 6.33299 21.2552 6.20348 20.828 5.9535C20.4064 5.70985 20.0563 5.35966 19.8127 4.93808C19.5624 4.51076 19.4329 4.0236 19.4378 3.52841C19.4321 3.03625 19.5618 2.55199 19.8127 2.12854C20.0589 1.71153 20.4086 1.36515 20.828 1.12298C21.2553 0.873297 21.7423 0.743811 22.2372 0.748325C22.7292 0.743026 23.2133 0.872628 23.6369 1.12298C24.0521 1.36728 24.3981 1.71337 24.6424 2.12854C24.893 2.55211 25.0226 3.03629 25.0172 3.52841C25.0218 4.02356 24.8923 4.51064 24.6424 4.93808C24.4007 5.35781 24.0542 5.7077 23.6369 5.9535C23.2133 6.20435 22.7289 6.33398 22.2366 6.32816H22.2372ZM25.7269 15.0034V1.00465H30.3207V15.0034H25.7269ZM36.136 8.65465C36.1489 8.66823 36.2475 8.82924 36.4317 9.13769C36.6159 9.44615 36.8558 9.84051 37.1513 10.3207C37.447 10.8007 37.759 11.31 38.0874 11.8487C38.4157 12.3874 38.7247 12.8968 39.0143 13.3768C39.3028 13.8568 39.6313 14.399 40 15.0034H34.9531C34.6375 14.4907 34.3515 14.0274 34.0952 13.6134C33.8389 13.1993 33.5665 12.7524 33.2778 12.2726C32.9884 11.7933 32.7024 11.3267 32.4196 10.8728C32.1368 10.4188 31.8938 10.0213 31.6905 9.67994C31.4863 9.33841 31.3449 9.10835 31.2663 8.98984C31.0713 8.69573 30.9559 8.35605 30.9315 8.00401C30.951 7.66613 31.0597 7.33952 31.2466 7.05734C31.3254 6.9259 31.47 6.69254 31.6803 6.35736C31.8906 6.02218 32.137 5.62461 32.4196 5.16455C32.7021 4.7045 32.9882 4.23458 33.2778 3.75481C33.5674 3.27505 33.8398 2.82482 34.0952 2.4042C34.3519 1.98402 34.6379 1.51739 34.9531 1.00433H40L36.0962 7.37279C35.9754 7.56187 35.9073 7.77978 35.8991 8.00401C35.9121 8.23942 35.9942 8.46575 36.1353 8.65465H36.136Z" fill="white"/>
<path d="M9.50279 22.8189C9.26049 22.445 8.94938 22.1204 8.58601 21.8624C8.18098 21.5789 7.73116 21.3656 7.25529 21.2315C6.6776 21.0721 6.08007 20.9958 5.48085 21.0051H0V35.003H2.07013V29.9756H5.63857C6.44399 29.9878 7.2388 29.7908 7.94528 29.4039C8.62213 29.0286 9.18431 28.4765 9.57178 27.8066C9.98705 27.0672 10.1948 26.2293 10.1731 25.3816C10.1749 24.9235 10.1219 24.4668 10.0154 24.0212C9.91303 23.5946 9.73973 23.1882 9.50279 22.8189ZM7.66931 27.0676C7.40438 27.4834 7.01431 27.8044 6.55535 27.9844C5.99842 28.1951 5.40579 28.2956 4.81052 28.2801H2.07013V22.7204H5.08656C5.6627 22.6986 6.23615 22.8098 6.7624 23.0453C7.18103 23.2476 7.52326 23.5795 7.7383 23.9917C7.96612 24.454 8.07777 24.965 8.0636 25.4802C8.08636 26.0361 7.94955 26.5869 7.66931 27.0676Z" fill="#8BB5EB"/>
<path d="M15.2794 21.0051C14.9638 21.1628 14.6647 21.3173 14.3821 21.4684C14.0995 21.6196 13.8236 21.7609 13.5543 21.8923C13.2845 22.0237 13.0116 22.1552 12.7358 22.2866C12.46 22.4181 12.1774 22.5363 11.8881 22.6415C11.5989 22.7471 11.2902 22.8521 10.9618 22.9566L11.3952 24.6324C11.7895 24.5141 12.1476 24.3958 12.4697 24.2775C12.7851 24.1622 13.0944 24.0306 13.3963 23.8833C13.6923 23.7387 13.988 23.5809 14.2835 23.4101L14.2937 23.4042V35.0034H16.3438V21.0054L15.2794 21.0051Z" fill="#8BB5EB"/>
</svg>

<svg xmlns="http://www.w3.org/2000/svg" viewBox="0 0 40 36"><path fill="#fff" d="M0 15.003V1.005h4.593v13.998H0Zm10.843-11.77 2.641 11.77H8.457L5.303 1.005h2.82a2.655 2.655 0 0 1 1.764.64c.491.404.829.965.956 1.588Zm3.331 11.77V1.005h4.594v13.998h-4.594Zm8.063-8.675a2.737 2.737 0 0 1-1.409-.375 2.778 2.778 0 0 1-1.015-1.015 2.735 2.735 0 0 1-.375-1.41 2.685 2.685 0 0 1 .375-1.4 2.812 2.812 0 0 1 3.824-1.005c.415.244.761.59 1.005 1.006.251.423.38.907.375 1.4.005.495-.125.982-.375 1.41a2.8 2.8 0 0 1-1.005 1.014c-.424.251-.908.381-1.4.375Zm3.49 8.675V1.005h4.594v13.998h-4.594Zm10.409-6.348c.013.013.111.174.296.483.184.308.424.703.72 1.183a384.573 384.573 0 0 1 1.862 3.056c.289.48.617 1.022.986 1.626h-5.047l-.858-1.39c-.256-.414-.529-.86-.817-1.34-.29-.48-.576-.946-.858-1.4a71.293 71.293 0 0 1-.73-1.193 21.096 21.096 0 0 0-.424-.69 2.04 2.04 0 0 1-.334-.986c.019-.338.128-.664.315-.947.078-.131.223-.364.433-.7a216.7 216.7 0 0 0 1.598-2.603l.817-1.35.858-1.4H40l-3.904 6.369c-.12.189-.189.407-.197.631.013.235.095.462.236.65h.001Z"/><path fill="#8BB5EB" d="M9.503 22.819a3.523 3.523 0 0 0-.917-.957 4.403 4.403 0 0 0-1.33-.63 6.304 6.304 0 0 0-1.775-.227H0v13.998h2.07v-5.027H5.64c.805.012 1.6-.185 2.306-.572a4.272 4.272 0 0 0 1.627-1.597c.415-.74.623-1.578.601-2.425a5.755 5.755 0 0 0-.158-1.36 3.92 3.92 0 0 0-.512-1.203Zm-1.834 4.249a2.33 2.33 0 0 1-1.114.916c-.557.211-1.15.312-1.744.296H2.07v-5.56h3.016c.576-.021 1.15.09 1.675.325.419.203.761.534.976.947.228.462.34.973.326 1.488a2.915 2.915 0 0 1-.395 1.588ZM15.28 21.005a36.63 36.63 0 0 0-.898.463c-.282.152-.558.293-.828.424-.27.132-.542.263-.818.395-.276.131-.559.25-.848.355-.29.105-.598.21-.926.315l.433 1.675c.395-.118.753-.236 1.075-.355.315-.115.624-.246.926-.394.296-.144.592-.302.887-.473l.01-.006v11.6h2.05V21.004H15.28Z"/></svg>
